2025-11-20 10:18:25,980 - URBasic_robotModelEvent - INFO - Init done
2025-11-20 10:18:26,512 - URBasic_realTimeClientEvent - INFO - Connected
2025-11-20 10:18:26,512 - URBasic_realTimeClientEvent - INFO - RT_CLient constructor done
2025-11-20 10:18:26,514 - URBasic_dataLogEvent - INFO - DataLog constructor done
2025-11-20 10:18:26,515 - URBasic_rtdeEvent - INFO - RTDE constructor done
2025-11-20 10:18:27,032 - URBasic_dashboardEvent - INFO - Connected
2025-11-20 10:18:27,033 - URBasic_dashboardEvent - INFO - UR Dashboard respond Connected: Universal Robots Dashboard Server
2025-11-20 10:18:27,033 - URBasic_dashboardEvent - INFO - Dashboard server constructor done
2025-11-20 10:18:27,033 - URBasic_robotConnectorEvent - INFO - Init done
2025-11-20 10:18:27,627 - URBasic_rtdeEvent - INFO - Controller version: 5.11.10-0
2025-11-20 10:18:27,630 - URBasic_rtdeEvent - INFO - RTDE started
2025-11-20 10:18:28,040 - URBasic_urScriptEvent - INFO - Init done
2025-11-20 10:18:28,072 - URBasic_urScriptExtEvent - INFO - Init done
2025-11-20 10:18:28,076 - URBasic_realTimeClientEvent - INFO - Program send to Robot:
def move_l():
  write_output_boolean_register(0, True)
    movel( p[0.244, -0.32, 0.3, -3.122, -0.03, -0.123], a=0.4, v=0.5,  r=0)


  write_output_boolean_register(1, True)
end

2025-11-20 10:18:29,795 - URBasic_realTimeClientEvent - INFO - sendProgram: Finished
2025-11-20 10:18:29,857 - URBasic_realTimeClientEvent - INFO - Program send to Robot:
def resetRegister():
  write_output_boolean_register(0, False)
  write_output_boolean_register(1, False)
end

2025-11-20 10:18:29,967 - URBasic_realTimeClientEvent - INFO - Program send to Robot:
def move_l():
  write_output_boolean_register(0, True)
    movel( p[0.25, -0.315, 0.152, -3.122, -0.03, -0.123], a=0.4, v=0.5,  r=0)


  write_output_boolean_register(1, True)
end

2025-11-20 10:18:31,443 - URBasic_realTimeClientEvent - INFO - sendProgram: Finished
2025-11-20 10:18:31,507 - URBasic_realTimeClientEvent - INFO - Program send to Robot:
def resetRegister():
  write_output_boolean_register(0, False)
  write_output_boolean_register(1, False)
end

2025-11-20 10:18:31,616 - URBasic_realTimeClientEvent - INFO - Program send to Robot:
def move_l():
  write_output_boolean_register(0, True)
    movel( p[0.244, -0.32, 0.3, -3.122, -0.03, -0.123], a=0.3, v=0.5,  r=0)


  write_output_boolean_register(1, True)
end

2025-11-20 10:18:33,279 - URBasic_realTimeClientEvent - INFO - sendProgram: Finished
2025-11-20 10:18:33,343 - URBasic_realTimeClientEvent - INFO - Program send to Robot:
def resetRegister():
  write_output_boolean_register(0, False)
  write_output_boolean_register(1, False)
end

2025-11-20 10:18:33,452 - URBasic_realTimeClientEvent - INFO - Program send to Robot:
def move_l():
  write_output_boolean_register(0, True)
    movel( p[-0.028, -0.371, 0.282, -3.122, -0.03, -0.12], a=0.4, v=0.5,  r=0)


  write_output_boolean_register(1, True)
end

2025-11-20 10:18:35,341 - URBasic_realTimeClientEvent - INFO - sendProgram: Finished
2025-11-20 10:18:35,406 - URBasic_realTimeClientEvent - INFO - Program send to Robot:
def resetRegister():
  write_output_boolean_register(0, False)
  write_output_boolean_register(1, False)
end

2025-11-20 10:18:35,515 - URBasic_realTimeClientEvent - INFO - Program send to Robot:
def move_l():
  write_output_boolean_register(0, True)
    movel( p[-0.041, -0.393, 0.155, -3.122, -0.03, -0.12], a=0.3, v=0.5,  r=0)


  write_output_boolean_register(1, True)
end

2025-11-20 10:18:35,629 - URBasic_rtdeEvent - INFO - Total packages: 1000
2025-11-20 10:18:37,054 - URBasic_realTimeClientEvent - INFO - sendProgram: Finished
2025-11-20 10:18:37,113 - URBasic_realTimeClientEvent - INFO - Program send to Robot:
def resetRegister():
  write_output_boolean_register(0, False)
  write_output_boolean_register(1, False)
end

2025-11-20 10:18:37,223 - URBasic_realTimeClientEvent - INFO - Program send to Robot:
def move_l():
  write_output_boolean_register(0, True)
    movel( p[-0.028, -0.371, 0.282, -3.122, -0.03, -0.12], a=0.3, v=0.5,  r=0)


  write_output_boolean_register(1, True)
end

2025-11-20 10:18:38,764 - URBasic_realTimeClientEvent - INFO - sendProgram: Finished
2025-11-20 10:18:38,826 - URBasic_realTimeClientEvent - INFO - Program send to Robot:
def resetRegister():
  write_output_boolean_register(0, False)
  write_output_boolean_register(1, False)
end

2025-11-20 10:18:38,937 - URBasic_realTimeClientEvent - INFO - Program send to Robot:
def move_l():
  write_output_boolean_register(0, True)
    movel( p[-0.041, -0.393, 0.155, -3.122, -0.03, -0.12], a=0.3, v=0.5,  r=0)


  write_output_boolean_register(1, True)
end

2025-11-20 10:18:40,489 - URBasic_realTimeClientEvent - INFO - sendProgram: Finished
2025-11-20 10:18:40,541 - URBasic_realTimeClientEvent - INFO - Program send to Robot:
def resetRegister():
  write_output_boolean_register(0, False)
  write_output_boolean_register(1, False)
end

2025-11-20 10:18:40,646 - URBasic_realTimeClientEvent - INFO - Program send to Robot:
def move_l():
  write_output_boolean_register(0, True)
    movel( p[0.244, -0.32, 0.3, -3.122, -0.03, -0.123], a=0.4, v=0.5,  r=0)


  write_output_boolean_register(1, True)
end

2025-11-20 10:18:42,686 - URBasic_realTimeClientEvent - INFO - sendProgram: Finished
2025-11-20 10:18:42,748 - URBasic_realTimeClientEvent - INFO - Program send to Robot:
def resetRegister():
  write_output_boolean_register(0, False)
  write_output_boolean_register(1, False)
end

2025-11-20 10:18:42,858 - URBasic_realTimeClientEvent - INFO - Program send to Robot:
def move_l():
  write_output_boolean_register(0, True)
    movel( p[0.25, -0.315, 0.152, -3.122, -0.03, -0.123], a=0.3, v=0.5,  r=0)


  write_output_boolean_register(1, True)
end

2025-11-20 10:18:43,629 - URBasic_rtdeEvent - INFO - Total packages: 2000
2025-11-20 10:18:44,540 - URBasic_realTimeClientEvent - INFO - sendProgram: Finished
2025-11-20 10:18:44,591 - URBasic_realTimeClientEvent - INFO - Program send to Robot:
def resetRegister():
  write_output_boolean_register(0, False)
  write_output_boolean_register(1, False)
end

2025-11-20 10:18:44,698 - URBasic_realTimeClientEvent - INFO - Program send to Robot:
def move_l():
  write_output_boolean_register(0, True)
    movel( p[0.06, -0.322, 0.405, -3.122, -0.03, -0.123], a=0.4, v=0.5,  r=0)


  write_output_boolean_register(1, True)
end

2025-11-20 10:18:46,714 - URBasic_realTimeClientEvent - INFO - sendProgram: Finished
2025-11-20 10:18:46,778 - URBasic_realTimeClientEvent - INFO - Program send to Robot:
def resetRegister():
  write_output_boolean_register(0, False)
  write_output_boolean_register(1, False)
end

2025-11-20 10:18:51,630 - URBasic_rtdeEvent - INFO - Total packages: 3000
