2025-11-20 10:45:13,362 - URBasic_robotModelEvent - INFO - Init done
2025-11-20 10:45:13,880 - URBasic_realTimeClientEvent - INFO - Connected
2025-11-20 10:45:13,880 - URBasic_realTimeClientEvent - INFO - RT_CLient constructor done
2025-11-20 10:45:13,881 - URBasic_dataLogEvent - INFO - DataLog constructor done
2025-11-20 10:45:13,882 - URBasic_rtdeEvent - INFO - RTDE constructor done
2025-11-20 10:45:14,395 - URBasic_dashboardEvent - INFO - Connected
2025-11-20 10:45:14,395 - URBasic_dashboardEvent - INFO - UR Dashboard respond Connected: Universal Robots Dashboard Server
2025-11-20 10:45:14,396 - URBasic_dashboardEvent - INFO - Dashboard server constructor done
2025-11-20 10:45:14,396 - URBasic_robotConnectorEvent - INFO - Init done
2025-11-20 10:45:15,066 - URBasic_rtdeEvent - INFO - Controller version: 5.11.10-0
2025-11-20 10:45:15,069 - URBasic_rtdeEvent - INFO - RTDE started
2025-11-20 10:45:15,396 - URBasic_urScriptEvent - INFO - Init done
2025-11-20 10:45:15,433 - URBasic_urScriptExtEvent - INFO - Init done
2025-11-20 10:45:16,415 - URBasic_realTimeClientEvent - INFO - Program send to Robot:
def move_l():
  write_output_boolean_register(0, True)
    movel( p[0.244, -0.32, 0.3, -3.122, -0.03, -0.123], a=0.4, v=0.5,  r=0)


  write_output_boolean_register(1, True)
end

2025-11-20 10:45:16,519 - URBasic_realTimeClientEvent - INFO - sendProgram: Finished
2025-11-20 10:45:16,582 - URBasic_realTimeClientEvent - INFO - Program send to Robot:
def resetRegister():
  write_output_boolean_register(0, False)
  write_output_boolean_register(1, False)
end

2025-11-20 10:45:16,692 - URBasic_realTimeClientEvent - INFO - Program send to Robot:
def move_l():
  write_output_boolean_register(0, True)
    movel( p[0.25, -0.315, 0.152, -3.122, -0.03, -0.123], a=0.4, v=0.5,  r=0)


  write_output_boolean_register(1, True)
end

2025-11-20 10:45:18,682 - URBasic_realTimeClientEvent - INFO - sendProgram: Finished
2025-11-20 10:45:18,747 - URBasic_realTimeClientEvent - INFO - Program send to Robot:
def resetRegister():
  write_output_boolean_register(0, False)
  write_output_boolean_register(1, False)
end

2025-11-20 10:45:18,851 - URBasic_realTimeClientEvent - INFO - Program send to Robot:
def move_l():
  write_output_boolean_register(0, True)
    movel( p[0.244, -0.32, 0.3, -3.122, -0.03, -0.123], a=0.3, v=0.5,  r=0)


  write_output_boolean_register(1, True)
end

2025-11-20 10:45:20,524 - URBasic_realTimeClientEvent - INFO - sendProgram: Finished
2025-11-20 10:45:20,587 - URBasic_realTimeClientEvent - INFO - Program send to Robot:
def resetRegister():
  write_output_boolean_register(0, False)
  write_output_boolean_register(1, False)
end

2025-11-20 10:45:20,696 - URBasic_realTimeClientEvent - INFO - Program send to Robot:
def move_l():
  write_output_boolean_register(0, True)
    movel( p[-0.028, -0.371, 0.282, -3.122, -0.03, -0.12], a=0.4, v=0.5,  r=0)


  write_output_boolean_register(1, True)
end

2025-11-20 10:45:22,603 - URBasic_realTimeClientEvent - INFO - sendProgram: Finished
2025-11-20 10:45:22,654 - URBasic_realTimeClientEvent - INFO - Program send to Robot:
def resetRegister():
  write_output_boolean_register(0, False)
  write_output_boolean_register(1, False)
end

2025-11-20 10:45:23,067 - URBasic_rtdeEvent - INFO - Total packages: 1000
2025-11-20 10:45:25,132 - URBasic_realTimeClientEvent - INFO - Program send to Robot:
def move_l():
  write_output_boolean_register(0, True)
    movel( p[-0.041, -0.393, 0.155, -3.122, -0.03, -0.12], a=0.3, v=0.5,  r=0)


  write_output_boolean_register(1, True)
end

2025-11-20 10:45:26,689 - URBasic_realTimeClientEvent - INFO - sendProgram: Finished
2025-11-20 10:45:26,753 - URBasic_realTimeClientEvent - INFO - Program send to Robot:
def resetRegister():
  write_output_boolean_register(0, False)
  write_output_boolean_register(1, False)
end

2025-11-20 10:45:26,864 - URBasic_realTimeClientEvent - INFO - Program send to Robot:
def move_l():
  write_output_boolean_register(0, True)
    movel( p[-0.028, -0.371, 0.282, -3.122, -0.03, -0.12], a=0.3, v=0.5,  r=0)


  write_output_boolean_register(1, True)
end

2025-11-20 10:45:28,450 - URBasic_realTimeClientEvent - INFO - sendProgram: Finished
2025-11-20 10:45:28,512 - URBasic_realTimeClientEvent - INFO - Program send to Robot:
def resetRegister():
  write_output_boolean_register(0, False)
  write_output_boolean_register(1, False)
end

2025-11-20 10:45:28,621 - URBasic_realTimeClientEvent - INFO - Program send to Robot:
def move_l():
  write_output_boolean_register(0, True)
    movel( p[-0.041, -0.393, 0.155, -3.122, -0.03, -0.12], a=0.3, v=0.5,  r=0)


  write_output_boolean_register(1, True)
end

2025-11-20 10:45:30,206 - URBasic_realTimeClientEvent - INFO - sendProgram: Finished
2025-11-20 10:45:30,268 - URBasic_realTimeClientEvent - INFO - Program send to Robot:
def resetRegister():
  write_output_boolean_register(0, False)
  write_output_boolean_register(1, False)
end

2025-11-20 10:45:30,376 - URBasic_realTimeClientEvent - INFO - Program send to Robot:
def move_l():
  write_output_boolean_register(0, True)
    movel( p[0.244, -0.32, 0.3, -3.122, -0.03, -0.123], a=0.4, v=0.5,  r=0)


  write_output_boolean_register(1, True)
end

2025-11-20 10:45:31,067 - URBasic_rtdeEvent - INFO - Total packages: 2000
2025-11-20 10:45:32,421 - URBasic_realTimeClientEvent - INFO - sendProgram: Finished
2025-11-20 10:45:32,484 - URBasic_realTimeClientEvent - INFO - Program send to Robot:
def resetRegister():
  write_output_boolean_register(0, False)
  write_output_boolean_register(1, False)
end

2025-11-20 10:45:32,595 - URBasic_realTimeClientEvent - INFO - Program send to Robot:
def move_l():
  write_output_boolean_register(0, True)
    movel( p[0.25, -0.315, 0.152, -3.122, -0.03, -0.123], a=0.3, v=0.5,  r=0)


  write_output_boolean_register(1, True)
end

2025-11-20 10:45:34,215 - URBasic_realTimeClientEvent - INFO - sendProgram: Finished
2025-11-20 10:45:34,280 - URBasic_realTimeClientEvent - INFO - Program send to Robot:
def resetRegister():
  write_output_boolean_register(0, False)
  write_output_boolean_register(1, False)
end

2025-11-20 10:45:34,392 - URBasic_realTimeClientEvent - INFO - Program send to Robot:
def move_l():
  write_output_boolean_register(0, True)
    movel( p[0.06, -0.322, 0.405, -3.122, -0.03, -0.123], a=0.4, v=0.5,  r=0)


  write_output_boolean_register(1, True)
end

2025-11-20 10:45:36,383 - URBasic_realTimeClientEvent - INFO - sendProgram: Finished
2025-11-20 10:45:36,445 - URBasic_realTimeClientEvent - INFO - Program send to Robot:
def resetRegister():
  write_output_boolean_register(0, False)
  write_output_boolean_register(1, False)
end

2025-11-20 10:45:39,067 - URBasic_rtdeEvent - INFO - Total packages: 3000
